localPackages/DesignSystem/Sources/DesignSystem/Resources/Assets.xcassets/IconSet/ic-lock-pen-filled.imageset/ic-lock-pen-filled.svg

<svg width="24" height="24" viewBox="0 0 24 24" fill="none" xmlns="http://www.w3.org/2000/svg">
<g id="ic-lock-pen-filled">
<path id="Icon" fill-rule="evenodd" clip-rule="evenodd" d="M13.5 7.5V6.75C13.5 4.67893 11.8211 3 9.75 3C7.67893 3 6 4.67893 6 6.75V7.5H6.3H13.2H13.5ZM15 7.52878V7.5V6.75C15 3.85051 12.6495 1.5 9.75 1.5C6.85051 1.5 4.5 3.85051 4.5 6.75V7.5V7.52878C3.91168 7.56471 3.49429 7.64546 3.13803 7.82698C2.57354 8.1146 2.1146 8.57354 1.82698 9.13803C1.5 9.77976 1.5 10.6198 1.5 12.3V17.7C1.5 19.3802 1.5 20.2202 1.82698 20.862C2.1146 21.4265 2.57354 21.8854 3.13803 22.173C3.77976 22.5 4.61984 22.5 6.3 22.5H13.2C14.8802 22.5 15.7202 22.5 16.362 22.173C16.9265 21.8854 17.3854 21.4265 17.673 20.862C18 20.2202 18 19.3802 18 17.7V16.8147L16.2009 18.6062C15.7689 19.0364 15.2226 19.3328 14.6277 19.4613L12.8603 19.8928L12.8333 19.8984C11.5094 20.1706 10.3095 19.0206 10.5582 17.672L10.5642 17.6395L10.9746 15.8583C11.0966 15.2388 11.401 14.67 11.8485 14.2245L17.3985 8.69799C17.1252 8.33427 16.7714 8.03557 16.362 7.82698C16.0057 7.64546 15.5883 7.56471 15 7.52878ZM19.9906 8.18891C20.3204 7.86021 20.855 7.86021 21.1848 8.18891L22.2527 9.25471C22.5824 9.58342 22.5824 10.1164 22.2527 10.4451L15.1331 17.5419C14.8999 17.7744 14.6035 17.9337 14.2805 18.0002L12.5078 18.4335C12.2144 18.4938 11.953 18.2389 12.0072 17.9453L12.4186 16.1577C12.4804 15.8219 12.6432 15.5129 12.8854 15.2714L19.9906 8.18891Z" fill="#0F0F0F"/>
</g>
</svg>

<svg xmlns="http://www.w3.org/2000/svg" width="24" height="24" viewBox="0 0 24 24">
  <g class="ic-lock-pen-filled">
    <path fill-rule="evenodd" d="M13.5 7.5v-.75a3.75 3.75 0 1 0-7.5 0v.75h7.5Zm1.5.029V6.75a5.25 5.25 0 1 0-10.5 0v.779c-.588.036-1.006.116-1.362.298a3 3 0 0 0-1.311 1.311C1.5 9.78 1.5 10.62 1.5 12.3v5.4c0 1.68 0 2.52.327 3.162a3 3 0 0 0 1.311 1.311c.642.327 1.482.327 3.162.327h6.9c1.68 0 2.52 0 3.162-.327a3 3 0 0 0 1.311-1.311C18 20.22 18 19.38 18 17.7v-.885l-1.8 1.791a3.17 3.17 0 0 1-1.572.855l-1.768.432-.027.005c-1.324.273-2.524-.877-2.275-2.226l.006-.032.41-1.782a3.17 3.17 0 0 1 .874-1.633l5.55-5.527a3 3 0 0 0-1.036-.871c-.356-.182-.774-.262-1.362-.298Zm4.99.66a.846.846 0 0 1 1.195 0l1.068 1.066a.84.84 0 0 1 0 1.19l-7.12 7.097a1.69 1.69 0 0 1-.852.458l-1.773.433a.422.422 0 0 1-.5-.488l.41-1.787c.062-.336.225-.645.467-.887l7.106-7.082Z" class="Icon"/>
  </g>
</svg>
